X:14557
T:Rosemary Came Dunn's
C:David de la Barre. Nov. 1985
S:unknown, photocopy
M:3/4
I:speed 220
K:D
|:Bc | d3ed2 | cA3 Bc | B3 A G2 | FD3 EF | 
G3A G2 | FE D2 EF | G3 F ED | E4 FE |
D2 B3c | AF3 FE | D2 B2 AF | A4 Bc | 
d3c BA | FA2 D EF | GA B3d | cB A2 :|
|:Bc | BF d3c | AF d3 c | dc BAFA | FE D2 (3DEF |
G3A BG | FG A3A | Bc d2 e2  | cB | A2 (3ABc |
dc BFBc | dc AFAc | dc BAFE | FG A2 (3AGF | 
DG B3 G | DF A3F | GA Bcde |[1cB A2:|[2d6||
